components/ui-node-icon/src/postgresSql/postgresSql.large.svg

<svg width="32" height="32" viewBox="0 0 32 32" fill="none" xmlns="http://www.w3.org/2000/svg">
  <path d="M17.2421 1C16.2809 1.00694 15.3253 1.14255 14.4023 1.403L14.3374 1.423C13.7552 1.32319 13.1658 1.26802 12.5748 1.258C11.3605 1.238 10.3174 1.524 9.47628 2.00001C8.64755 1.72101 6.92824 1.24 5.11616 1.336C3.85451 1.403 2.47741 1.77501 1.45695 2.82002C0.439591 3.86503 -0.0984675 5.48204 0.0149164 7.68206C0.0458392 8.28907 0.224161 9.27907 0.51999 10.5611C0.815819 11.8431 1.23122 13.3441 1.74969 14.7131C2.26816 16.0831 2.83611 17.3131 3.7236 18.1492C4.16683 18.5682 4.77704 18.9202 5.49651 18.8912C6.00158 18.8712 6.45821 18.6562 6.85196 18.3392C7.04368 18.5842 7.24881 18.6912 7.43537 18.7902C7.67039 18.9152 7.89922 19.0002 8.13629 19.0562C8.562 19.1592 9.29075 19.2972 10.1442 19.1562C10.4349 19.1092 10.741 19.0172 11.0461 18.8862C11.0575 19.2162 11.0709 19.5392 11.0843 19.8662C11.1265 20.9022 11.1533 21.8592 11.4739 22.6982C11.5254 22.8352 11.6667 23.5412 12.2233 24.1642C12.7799 24.7882 13.8704 25.1772 15.1125 24.9192C15.9886 24.7372 17.1029 24.4092 17.843 23.3872C18.5748 22.3772 18.9047 20.9282 18.9696 18.5782C18.9861 18.4512 19.0057 18.3432 19.0263 18.2422L19.2005 18.2572H19.2211C20.156 18.2982 21.1703 18.1692 22.0176 17.7872C22.768 17.4501 23.3359 17.1091 23.7493 16.5041C23.8523 16.3541 23.9657 16.1731 23.9966 15.8611C24.0276 15.5491 23.8431 15.0611 23.5369 14.8361C22.9236 14.3841 22.5381 14.5561 22.1248 14.6391C21.7176 14.7265 21.3027 14.7753 20.8858 14.7851C22.0774 12.8381 22.9319 10.7701 23.4194 8.94007C23.708 7.86006 23.8699 6.86405 23.8833 5.99304C23.8967 5.12204 23.8235 4.35103 23.2854 3.68402C21.6042 1.60001 19.2407 1.024 17.4121 1.004C17.3554 1.003 17.2987 1.002 17.2421 1.003V1ZM17.1936 1.64001C18.9232 1.62401 21.1332 2.09501 22.7195 4.06203C23.0762 4.50403 23.1823 5.15004 23.17 5.94604C23.1566 6.74105 23.005 7.69306 22.7278 8.73607C22.1897 10.7561 21.1734 13.1111 19.7416 15.2241C19.7922 15.259 19.8469 15.2879 19.9045 15.3101C20.2034 15.4301 20.8848 15.5331 22.2443 15.2621C22.5866 15.1921 22.837 15.1451 23.0968 15.3371C23.1599 15.389 23.2098 15.4544 23.2425 15.5282C23.2752 15.6019 23.2899 15.682 23.2854 15.7621C23.2715 15.8835 23.2254 15.9993 23.1514 16.0981C22.8886 16.4811 22.3701 16.8441 21.7053 17.1431C21.1167 17.4091 20.2725 17.5481 19.5242 17.5561C19.149 17.5601 18.8026 17.5321 18.5089 17.4431L18.4903 17.4361C18.3769 18.4962 18.1161 20.5892 17.9461 21.5442C17.81 22.3142 17.5719 22.9262 17.1173 23.3842C16.6638 23.8422 16.0216 24.1182 15.1578 24.2982C14.0879 24.5212 13.3076 24.2812 12.8046 23.8702C12.3026 23.4602 12.0728 22.9162 11.9347 22.5832C11.8398 22.3532 11.7903 22.0552 11.7429 21.6572C11.6955 21.2592 11.6605 20.7722 11.6368 20.2232C11.6052 19.3825 11.5949 18.5413 11.6058 17.7001C11.1589 18.0973 10.6035 18.3611 10.0061 18.4602C9.2959 18.5772 8.66198 18.4622 8.28369 18.3702C8.09721 18.3247 7.9172 18.2572 7.7477 18.1692C7.57247 18.0782 7.40548 17.9752 7.29416 17.7722C7.22875 17.6559 7.20793 17.5209 7.23541 17.3911C7.27025 17.2596 7.34932 17.1431 7.46011 17.0601C7.6642 16.8991 7.93426 16.8091 8.34142 16.7271C9.08253 16.5791 9.34126 16.4781 9.49896 16.3571C9.63296 16.2531 9.78448 16.0431 10.0525 15.7351C10.0512 15.7215 10.0502 15.7078 10.0494 15.6941C9.56976 15.681 9.10007 15.5584 8.67847 15.3361C8.52386 15.4941 7.7343 16.3041 6.77156 17.4281C6.36647 17.8982 5.91912 18.1682 5.44703 18.1872C4.97495 18.2072 4.54821 17.9762 4.18538 17.6351C3.46076 16.9521 2.8825 15.7771 2.37845 14.4491C1.87544 13.1211 1.46623 11.6421 1.17555 10.3821C0.883849 9.12207 0.711712 8.10606 0.686974 7.61606C0.578743 5.53404 1.08072 4.13103 1.94141 3.24602C2.80313 2.36101 3.98438 2.02601 5.13574 1.96201C7.20242 1.84701 9.16499 2.54601 9.56184 2.69602C10.3267 2.19201 11.3121 1.87801 12.5428 1.89801C13.1271 1.90596 13.7085 1.97911 14.2755 2.11601L14.2961 2.10701C14.5457 2.0219 14.8 1.95045 15.0579 1.89301C15.758 1.73456 16.4737 1.6504 17.1926 1.64201L17.1936 1.64001ZM17.3503 2.31001H17.1998C16.6092 2.318 16.0209 2.38231 15.4434 2.50201C16.7277 3.05402 17.6976 3.90403 18.381 4.75203C18.8558 5.33918 19.2481 5.98482 19.5479 6.67205C19.6612 6.93605 19.7375 7.15905 19.7808 7.33206C19.8025 7.41906 19.8169 7.49206 19.822 7.56806C19.8241 7.60606 19.8262 7.64506 19.8097 7.71206C19.8097 7.71506 19.8045 7.72206 19.8035 7.72506C19.8344 8.60107 19.6107 9.19507 19.5839 10.0311C19.5633 10.6371 19.7231 11.3491 19.7623 12.1261C19.7994 12.8561 19.7087 13.6581 19.2201 14.4451C19.2613 14.4931 19.2984 14.5411 19.3376 14.5891C20.6302 12.6141 21.562 10.4291 22.0588 8.56607C22.3247 7.56306 22.466 6.65405 22.4783 5.93404C22.4886 5.21404 22.3505 4.69203 22.1742 4.47403C20.791 2.75802 18.9191 2.32101 17.3503 2.30901V2.31001ZM12.4129 2.56601C11.1946 2.56901 10.3205 2.92602 9.6577 3.46102C8.9743 4.01403 8.51561 4.77103 8.21463 5.54604C7.85696 6.46605 7.7343 7.35606 7.68585 7.96006L7.69925 7.95206C8.06723 7.75206 8.55066 7.55206 9.0681 7.43606C9.58555 7.32106 10.1432 7.28506 10.6483 7.47506C11.1533 7.66506 11.5708 8.11206 11.7223 8.79007C12.448 12.0471 11.4966 13.2581 11.1461 14.1721C11.0132 14.5034 10.8993 14.8416 10.8049 15.1851C10.8493 15.1751 10.8936 15.1631 10.9379 15.1591C11.1853 15.1391 11.3791 15.2191 11.4945 15.2671C11.847 15.4091 12.0893 15.7071 12.2202 16.0471C12.2542 16.1361 12.2789 16.2321 12.2934 16.3311C12.3086 16.3718 12.3156 16.4149 12.314 16.4581C12.2749 17.7039 12.2794 18.9507 12.3274 20.1962C12.3511 20.7342 12.3861 21.2082 12.4304 21.5822C12.4748 21.9552 12.5376 22.2392 12.5778 22.3352C12.7098 22.6552 12.9025 23.0742 13.2509 23.3592C13.5993 23.6432 14.0993 23.8332 15.0125 23.6432C15.8041 23.4782 16.2927 23.2492 16.6195 22.9202C16.9452 22.5912 17.14 22.1332 17.2647 21.4322C17.4513 20.3822 17.8265 17.3371 17.8718 16.7641C17.8512 16.3321 17.9172 16.0001 18.0594 15.7471C18.2058 15.4871 18.4326 15.3281 18.6284 15.2421C18.7263 15.1991 18.8181 15.1701 18.8933 15.1491C18.8137 15.0381 18.7301 14.9297 18.6429 14.8241C18.3605 14.4919 18.1293 14.1217 17.9564 13.7251C17.8736 13.5613 17.7852 13.4002 17.6915 13.2421C17.5544 13.0021 17.3812 12.7021 17.1998 12.3651C16.837 11.6901 16.4422 10.8721 16.2371 10.0751C16.033 9.27907 16.0031 8.45507 16.5267 7.87406C16.9905 7.35806 17.8048 7.14405 19.0273 7.26406C18.9913 7.15906 18.9696 7.07205 18.9088 6.93205C18.6324 6.30093 18.2716 5.70784 17.8358 5.16804C16.7999 3.88303 15.1228 2.60901 12.5315 2.56801H12.4129V2.56601ZM5.5666 2.61801C5.4357 2.61801 5.30479 2.62201 5.17491 2.62901C4.13384 2.68702 3.14946 2.98002 2.44545 3.70402C1.74041 4.42803 1.27657 5.61504 1.37758 7.58006C1.39717 7.95206 1.56415 8.99407 1.8507 10.2321C2.13623 11.4701 2.54132 12.9271 3.02783 14.2141C3.51539 15.5011 4.10601 16.6211 4.66675 17.1511C4.94918 17.4161 5.1945 17.5231 5.41714 17.5141C5.64082 17.5041 5.90985 17.3791 6.23866 16.9961C6.83815 16.2946 7.46036 15.6116 8.10434 14.9481C7.64741 14.5632 7.29771 14.0729 7.08749 13.5224C6.87727 12.9719 6.81329 12.3789 6.90144 11.7981C7.00761 11.0591 7.02204 10.3681 7.00967 9.82208C6.9973 9.29007 6.95813 8.93607 6.95813 8.71507C6.95795 8.70874 6.95795 8.7024 6.95813 8.69607V8.69107L6.9571 8.68507V8.68407C6.95649 7.53285 7.16299 6.39037 7.56731 5.30804C7.85593 4.56403 8.28575 3.80803 8.92998 3.19602C8.29709 2.99402 7.17356 2.68602 5.95726 2.62801C5.8268 2.62151 5.6962 2.61818 5.56557 2.61801H5.5666ZM18.346 7.90006C17.6461 7.90906 17.2534 8.08406 17.0472 8.31307C16.7555 8.63807 16.7277 9.20807 16.9091 9.91008C17.0895 10.6131 17.4626 11.3991 17.8131 12.0521C17.9883 12.3791 18.1584 12.6731 18.2955 12.9121C18.4336 13.1521 18.5346 13.3221 18.5965 13.4671C18.6532 13.6011 18.716 13.7191 18.7799 13.8291C19.051 13.2741 19.0995 12.7291 19.0717 12.1611C19.0356 11.4581 18.8676 10.7391 18.8923 10.0111C18.9201 9.16007 19.0933 8.60607 19.1088 7.94806C18.8558 7.91627 18.601 7.90024 18.346 7.90006ZM9.8587 8.01506C9.64489 8.017 9.43195 8.04182 9.22375 8.08906C8.8088 8.18687 8.40913 8.33787 8.03528 8.53807C7.90882 8.60388 7.78846 8.68016 7.67554 8.76607L7.65287 8.78607C7.65905 8.93207 7.68894 9.28607 7.70131 9.80708C7.71368 10.3771 7.69925 11.1041 7.58587 11.8911C7.33951 13.6011 8.61869 15.0171 10.1215 15.0191C10.2092 14.6681 10.3535 14.3121 10.4978 13.9371C10.9163 12.8431 11.7398 12.0451 11.0461 8.93107C10.9328 8.42107 10.708 8.21506 10.3988 8.09906C10.2255 8.03959 10.0425 8.01113 9.8587 8.01506ZM18.0192 8.21906H18.0708C18.1388 8.22106 18.2017 8.22807 18.2563 8.24107C18.312 8.25307 18.3594 8.27107 18.3986 8.29607C18.4187 8.30814 18.4359 8.32417 18.4492 8.34311C18.4626 8.36206 18.4716 8.38351 18.4759 8.40607L18.4748 8.41407H18.4759H18.4748C18.4769 8.46154 18.4643 8.50852 18.4388 8.54907C18.4084 8.60395 18.3702 8.65444 18.3254 8.69907C18.2208 8.81078 18.0808 8.8854 17.9275 8.91107C17.7784 8.92856 17.6278 8.89187 17.5049 8.80807C17.4546 8.77523 17.4094 8.73549 17.3709 8.69007C17.3375 8.65439 17.3151 8.61042 17.306 8.56307C17.3038 8.54 17.3065 8.51674 17.314 8.49473C17.3214 8.47272 17.3334 8.45241 17.3492 8.43507C17.3831 8.39778 17.424 8.36722 17.4698 8.34507C17.5688 8.29106 17.7028 8.25106 17.8543 8.22906C17.911 8.22106 17.9667 8.21706 18.0192 8.21606V8.21906ZM9.95868 8.38707C10.0133 8.38707 10.071 8.39207 10.1298 8.40007C10.2875 8.42107 10.4277 8.46207 10.5349 8.52207C10.5872 8.54854 10.6337 8.58453 10.672 8.62807C10.6928 8.65116 10.7085 8.67818 10.7181 8.70744C10.7277 8.73669 10.7309 8.76754 10.7276 8.79807C10.7177 8.85557 10.6909 8.90905 10.6503 8.95207C10.6082 9.0023 10.5585 9.04612 10.5029 9.08207C10.3689 9.17421 10.2042 9.2145 10.0411 9.19507C9.8745 9.1685 9.72197 9.08817 9.60822 8.96707C9.55983 8.91831 9.51887 8.86308 9.48659 8.80307C9.45262 8.75027 9.43775 8.68799 9.44433 8.62607C9.45979 8.51807 9.55153 8.46207 9.64121 8.43107C9.74335 8.3994 9.85055 8.38585 9.95765 8.39107L9.95868 8.38707ZM19.2974 15.7301L19.2943 15.7311C19.1428 15.7841 19.0181 15.8061 18.9129 15.8511C18.8066 15.8908 18.7189 15.967 18.6666 16.0651C18.6016 16.1801 18.546 16.3841 18.5625 16.7311C18.6091 16.7623 18.6606 16.7859 18.715 16.8011C18.8913 16.8531 19.1871 16.8871 19.5169 16.8821C20.1746 16.8751 20.9837 16.7261 21.4135 16.5321C21.7662 16.3732 22.0935 16.1661 22.3856 15.9171H22.3845C20.9487 16.2051 20.1375 16.1281 19.6396 15.9291C19.516 15.8792 19.4007 15.8118 19.2974 15.7291V15.7301ZM11.0193 15.8241H10.9977C10.9431 15.8291 10.8637 15.8471 10.7101 16.0121C10.3514 16.4021 10.2256 16.6471 9.92982 16.8761C9.63399 17.1041 9.24952 17.2261 8.4816 17.3791C8.23834 17.4271 8.09919 17.4801 8.00642 17.5231C8.03631 17.5471 8.03322 17.5531 8.07857 17.5761C8.19092 17.6361 8.33523 17.6891 8.45171 17.7181C8.78155 17.7982 9.32373 17.8912 9.88962 17.7982C10.4555 17.7041 11.0441 17.4411 11.5461 16.7581C11.6326 16.6401 11.6419 16.4661 11.5708 16.2791C11.4986 16.0921 11.3409 15.9311 11.2296 15.8861C11.1634 15.8551 11.0923 15.8349 11.0193 15.8261V15.8241Z" fill="var(--tbl--colors--brand--postgres)"/>
  <rect x="8.5" y="19.5" width="23" height="11" rx="2.5" fill="var(--tbl--colors--brand--postgres)" stroke="white"/>
  <path d="M14.9868 23.0995C14.9554 22.7892 14.8233 22.5477 14.5904 22.3748C14.3598 22.2019 14.0598 22.1155 13.6903 22.1155C13.4306 22.1155 13.2078 22.1569 13.0219 22.2398C12.8361 22.3227 12.6939 22.4352 12.5954 22.5773C12.4969 22.7194 12.4465 22.8816 12.4442 23.0639C12.4442 23.2155 12.4767 23.347 12.5416 23.4583C12.6088 23.5696 12.6995 23.6643 12.8137 23.7425C12.9279 23.8182 13.0544 23.8822 13.1932 23.9343C13.332 23.9864 13.472 24.0302 13.6131 24.0657L14.2579 24.2362C14.5177 24.3002 14.7673 24.3866 15.0069 24.4956C15.2487 24.6045 15.4648 24.7419 15.6551 24.9076C15.8477 25.0734 16 25.2735 16.1119 25.508C16.2239 25.7425 16.2798 26.0172 16.2798 26.3321C16.2798 26.7584 16.1768 27.1338 15.9708 27.4583C15.7648 27.7803 15.467 28.0326 15.0774 28.2149C14.6901 28.3949 14.221 28.4849 13.6701 28.4849C13.135 28.4849 12.6704 28.3973 12.2763 28.222C11.8845 28.0468 11.5777 27.791 11.356 27.4547C11.1366 27.1184 11.0179 26.7087 11 26.2256H12.2259C12.2438 26.479 12.3177 26.6898 12.4476 26.8579C12.5775 27.0261 12.7465 27.1516 12.9548 27.2345C13.1652 27.3173 13.4003 27.3588 13.6601 27.3588C13.931 27.3588 14.1684 27.3162 14.3721 27.2309C14.5781 27.1433 14.7393 27.0225 14.8558 26.8686C14.9722 26.7123 15.0315 26.5299 15.0338 26.3215C15.0315 26.132 14.9789 25.9757 14.8759 25.8526C14.7729 25.7271 14.6285 25.6229 14.4426 25.54C14.259 25.4547 14.0441 25.3789 13.7978 25.3126L13.0152 25.0995C12.4487 24.9455 12.0009 24.7123 11.6717 24.3996C11.3448 24.0847 11.1814 23.6667 11.1814 23.1456C11.1814 22.717 11.2911 22.3416 11.5105 22.0195C11.7322 21.6975 12.0334 21.4476 12.414 21.27C12.7947 21.09 13.2257 21 13.7071 21C14.1952 21 14.6229 21.09 14.9901 21.27C15.3596 21.4476 15.6495 21.6951 15.86 22.0124C16.0705 22.3274 16.1791 22.6898 16.1858 23.0995H14.9868Z" fill="white"/>
  <path d="M19.9534 25.9307H21.0819L21.7503 26.8472L22.2272 27.444L23.3725 29H22.1634L21.3842 27.9556L21.0517 27.4583L19.9534 25.9307ZM23.5371 24.7371C23.5371 25.521 23.3983 26.1924 23.1206 26.7513C22.8452 27.3079 22.469 27.7342 21.9921 28.0302C21.5174 28.3262 20.9789 28.4742 20.3766 28.4742C19.7743 28.4742 19.2346 28.3262 18.7577 28.0302C18.283 27.7318 17.9068 27.3043 17.6292 26.7478C17.3538 26.1889 17.2161 25.5187 17.2161 24.7371C17.2161 23.9532 17.3538 23.283 17.6292 22.7265C17.9068 22.1676 18.283 21.7401 18.7577 21.444C19.2346 21.148 19.7743 21 20.3766 21C20.9789 21 21.5174 21.148 21.9921 21.444C22.469 21.7401 22.8452 22.1676 23.1206 22.7265C23.3983 23.283 23.5371 23.9532 23.5371 24.7371ZM22.2843 24.7371C22.2843 24.1853 22.2026 23.72 22.0391 23.341C21.8779 22.9597 21.654 22.672 21.3674 22.4778C21.0808 22.2812 20.7505 22.1829 20.3766 22.1829C20.0027 22.1829 19.6724 22.2812 19.3858 22.4778C19.0992 22.672 18.8741 22.9597 18.7107 23.341C18.5495 23.72 18.4689 24.1853 18.4689 24.7371C18.4689 25.2889 18.5495 25.7555 18.7107 26.1368C18.8741 26.5157 19.0992 26.8034 19.3858 27C19.6724 27.1942 20.0027 27.2913 20.3766 27.2913C20.7505 27.2913 21.0808 27.1942 21.3674 27C21.654 26.8034 21.8779 26.5157 22.0391 26.1368C22.2026 25.7555 22.2843 25.2889 22.2843 24.7371Z" fill="white"/>
  <path d="M24.7244 28.3748V21.0995H25.9705V27.27H29V28.3748H24.7244Z" fill="white"/>
</svg>

<svg xmlns="http://www.w3.org/2000/svg" width="32" height="32" fill="none" viewBox="0 0 32 32">
  <path fill="var(--tbl--colors--brand--postgres)" d="M17.242 1c-.961.007-1.917.143-2.84.403l-.065.02c-.582-.1-1.171-.155-1.762-.165-1.214-.02-2.258.266-3.099.742-.828-.279-2.548-.76-4.36-.664-1.261.067-2.639.439-3.659 1.484C.44 3.865-.098 5.482.015 7.682c.03.607.21 1.597.505 2.88.296 1.281.711 2.782 1.23 4.151.518 1.37 1.086 2.6 1.974 3.436.443.42 1.053.771 1.773.742.505-.02.961-.235 1.355-.552.192.245.397.352.583.451.235.125.464.21.701.266.426.103 1.155.241 2.008.1a3.88 3.88 0 0 0 .902-.27c.011.33.025.653.038.98.043 1.036.07 1.993.39 2.832.051.137.193.843.75 1.466.556.624 1.646 1.013 2.889.755.876-.182 1.99-.51 2.73-1.532.732-1.01 1.062-2.459 1.127-4.809.016-.127.036-.235.056-.336l.175.015h.02c.935.041 1.95-.088 2.797-.47.75-.337 1.318-.678 1.731-1.283.103-.15.217-.33.248-.643.03-.312-.154-.8-.46-1.025-.613-.452-.999-.28-1.412-.197a6.649 6.649 0 0 1-1.24.146c1.192-1.947 2.047-4.015 2.534-5.845.289-1.08.45-2.076.464-2.947.014-.871-.06-1.642-.598-2.309-1.68-2.084-4.044-2.66-5.873-2.68-.057-.001-.113-.002-.17-.001V1Zm-.048.64c1.73-.016 3.94.455 5.526 2.422.356.442.462 1.088.45 1.884-.013.795-.165 1.747-.442 2.79-.538 2.02-1.555 4.375-2.986 6.488.05.035.105.064.162.086.3.12.98.223 2.34-.048.343-.07.593-.117.853.075a.521.521 0 0 1 .188.425.691.691 0 0 1-.134.336c-.262.383-.78.746-1.446 1.045-.588.266-1.432.405-2.18.413-.376.004-.722-.024-1.016-.113l-.019-.007c-.113 1.06-.374 3.153-.544 4.108-.136.77-.374 1.382-.829 1.84-.453.458-1.095.734-1.96.914-1.07.223-1.85-.017-2.352-.428-.502-.41-.732-.954-.87-1.287-.095-.23-.145-.528-.192-.926a19.705 19.705 0 0 1-.106-1.434 49.942 49.942 0 0 1-.031-2.523 3.195 3.195 0 0 1-1.6.76c-.71.117-1.344.002-1.722-.09a2.396 2.396 0 0 1-.536-.2c-.176-.092-.343-.195-.454-.398a.546.546 0 0 1-.059-.38.61.61 0 0 1 .225-.332c.204-.16.474-.25.881-.333.742-.148 1-.249 1.158-.37.134-.104.285-.314.553-.622a1.114 1.114 0 0 1-.003-.04 3.123 3.123 0 0 1-1.37-.359 44.38 44.38 0 0 0-1.907 2.092c-.406.47-.853.74-1.325.76-.472.02-.899-.212-1.262-.553-.724-.683-1.302-1.858-1.807-3.186-.503-1.328-.912-2.807-1.202-4.067C.884 9.122.712 8.106.687 7.616c-.108-2.082.394-3.485 1.254-4.37.862-.885 2.043-1.22 3.195-1.284 2.066-.115 4.029.584 4.426.734.765-.504 1.75-.818 2.98-.798a7.838 7.838 0 0 1 1.733.218l.021-.009c.25-.085.504-.157.762-.214.7-.158 1.416-.243 2.135-.251V1.64Zm.156.67h-.15a9.273 9.273 0 0 0-1.757.192 7.688 7.688 0 0 1 2.938 2.25 8.388 8.388 0 0 1 1.167 1.92c.113.264.19.487.233.66.021.087.036.16.041.236a.426.426 0 0 1-.012.144c0 .003-.005.01-.006.013.03.876-.193 1.47-.22 2.306-.02.606.14 1.318.178 2.095.037.73-.053 1.532-.542 2.32.041.047.078.095.118.143 1.292-1.975 2.224-4.16 2.72-6.023.267-1.003.408-1.912.42-2.632.01-.72-.128-1.242-.304-1.46-1.383-1.716-3.255-2.153-4.824-2.165v.001Zm-4.937.256c-1.218.003-2.093.36-2.755.895-.684.553-1.142 1.31-1.443 2.085-.358.92-.48 1.81-.53 2.414l.014-.008c.368-.2.852-.4 1.37-.516.517-.115 1.074-.15 1.58.04.504.19.922.636 1.073 1.314.726 3.257-.225 4.468-.576 5.382a9.44 9.44 0 0 0-.341 1.013c.044-.01.089-.022.133-.026.247-.02.441.06.556.108.353.142.595.44.726.78.034.09.059.185.073.284.016.04.023.084.021.127a53.493 53.493 0 0 0 .013 3.738c.024.538.06 1.012.103 1.386.045.373.108.657.148.753.132.32.325.74.673 1.024.348.284.848.474 1.761.284.792-.165 1.28-.394 1.607-.723.326-.329.521-.787.646-1.488.186-1.05.561-4.095.607-4.668-.02-.432.045-.764.187-1.017.147-.26.374-.419.57-.505.097-.043.19-.072.264-.093a6.024 6.024 0 0 0-.25-.325 4.431 4.431 0 0 1-.687-1.099 8.228 8.228 0 0 0-.264-.483c-.138-.24-.31-.54-.492-.877-.363-.675-.758-1.493-.963-2.29-.204-.796-.234-1.62.29-2.2.463-.517 1.278-.731 2.5-.61-.036-.106-.057-.193-.118-.333a7.772 7.772 0 0 0-1.073-1.764c-1.036-1.285-2.713-2.559-5.304-2.6h-.12v-.002Zm-6.846.052c-.131 0-.262.004-.392.011-1.041.058-2.026.351-2.73 1.075-.705.724-1.168 1.911-1.067 3.876.02.372.186 1.414.473 2.652.285 1.238.69 2.695 1.177 3.982.487 1.287 1.078 2.407 1.639 2.937.282.265.527.372.75.363.224-.01.493-.135.822-.518.6-.701 1.221-1.384 1.865-2.048a3.497 3.497 0 0 1-1.017-1.426 3.4 3.4 0 0 1-.186-1.724c.107-.739.121-1.43.109-1.976-.013-.532-.052-.886-.052-1.107v-.03a9.63 9.63 0 0 1 .61-3.377c.288-.744.718-1.5 1.362-2.112-.633-.202-1.756-.51-2.973-.568a8.083 8.083 0 0 0-.391-.01ZM18.346 7.9c-.7.01-1.093.184-1.299.413-.291.325-.32.895-.138 1.597.18.703.554 1.49.904 2.142.175.327.345.621.483.86.138.24.239.41.3.555.057.134.12.252.184.362.271-.555.32-1.1.292-1.668-.036-.703-.204-1.422-.18-2.15.028-.85.201-1.405.217-2.063a6.154 6.154 0 0 0-.763-.048Zm-8.487.115a2.993 2.993 0 0 0-.635.074 4.898 4.898 0 0 0-1.189.45 2.5 2.5 0 0 0-.36.227l-.022.02c.006.146.036.5.048 1.021.013.57-.002 1.297-.115 2.084-.246 1.71 1.033 3.126 2.535 3.128.088-.35.232-.707.377-1.082.418-1.094 1.242-1.892.548-5.006-.113-.51-.338-.716-.647-.832a1.562 1.562 0 0 0-.54-.084Zm8.16.204h.052a.93.93 0 0 1 .185.022c.056.012.103.03.143.055a.166.166 0 0 1 .077.11l-.001.008a.234.234 0 0 1-.036.135.67.67 0 0 1-.114.15.704.704 0 0 1-.398.212.622.622 0 0 1-.422-.103.62.62 0 0 1-.134-.118.257.257 0 0 1-.065-.127.164.164 0 0 1 .043-.128.396.396 0 0 1 .12-.09c.1-.054.234-.094.385-.116.057-.008.113-.012.165-.013v.003Zm-8.06.168c.054 0 .112.005.17.013.159.021.299.062.406.122a.458.458 0 0 1 .137.106.222.222 0 0 1 .056.17.298.298 0 0 1-.078.154.66.66 0 0 1-.147.13.675.675 0 0 1-.462.113.757.757 0 0 1-.433-.228.711.711 0 0 1-.121-.164.273.273 0 0 1-.043-.177c.016-.108.108-.164.197-.195a.918.918 0 0 1 .317-.04v-.004Zm9.338 7.343-.003.001c-.151.053-.276.075-.381.12a.461.461 0 0 0-.246.214c-.065.115-.121.32-.105.666a.53.53 0 0 0 .153.07c.176.052.472.086.802.081.658-.007 1.467-.156 1.896-.35.353-.159.68-.366.973-.615h-.002c-1.435.288-2.247.211-2.744.012a1.365 1.365 0 0 1-.343-.2v.001Zm-8.278.094h-.021c-.055.005-.134.023-.288.188-.359.39-.484.635-.78.864-.296.228-.68.35-1.448.503a2.02 2.02 0 0 0-.476.144c.03.024.027.03.073.053.112.06.256.113.373.142.33.08.872.173 1.438.08.566-.094 1.154-.357 1.656-1.04.087-.118.096-.292.025-.479-.072-.187-.23-.348-.341-.393a.691.691 0 0 0-.21-.06v-.002Z"/>
  <rect width="23" height="11" x="8.5" y="19.5" fill="var(--tbl--colors--brand--postgres)" stroke="#fff" rx="2.5"/>
  <path fill="#fff" d="M14.987 23.1a.982.982 0 0 0-.397-.725c-.23-.173-.53-.26-.9-.26-.26 0-.482.042-.668.125a.997.997 0 0 0-.427.337.853.853 0 0 0-.15.487.77.77 0 0 0 .097.394.918.918 0 0 0 .272.285c.114.075.24.14.38.191.138.052.278.096.42.132l.644.17c.26.064.51.15.749.26.242.109.458.246.648.412.193.165.345.365.457.6.112.235.168.51.168.824 0 .426-.103.802-.31 1.126a2.068 2.068 0 0 1-.893.757c-.387.18-.856.27-1.407.27-.535 0-1-.088-1.394-.263a2.1 2.1 0 0 1-.92-.767c-.22-.337-.338-.746-.356-1.23h1.226c.018.254.092.465.222.633.13.168.298.294.507.377.21.082.445.124.705.124.271 0 .508-.043.712-.128.206-.088.367-.209.484-.362a.908.908 0 0 0 .178-.547.72.72 0 0 0-.158-.47 1.157 1.157 0 0 0-.433-.312 4.013 4.013 0 0 0-.645-.227l-.783-.213c-.566-.155-1.014-.388-1.343-.7-.327-.315-.49-.733-.49-1.254 0-.429.11-.804.329-1.127a2.2 2.2 0 0 1 .903-.749c.38-.18.812-.27 1.293-.27.488 0 .916.09 1.283.27.37.178.66.425.87.742.21.315.32.678.326 1.087h-1.2ZM19.953 25.93h1.129l.668.917.477.597L23.372 29h-1.209l-.779-1.044-.332-.498-1.099-1.527Zm3.584-1.193c0 .784-.139 1.455-.416 2.014-.276.557-.652.983-1.129 1.28a2.99 2.99 0 0 1-1.615.443 3.007 3.007 0 0 1-1.62-.444c-.474-.298-.85-.726-1.128-1.282-.275-.56-.413-1.23-.413-2.01 0-.785.138-1.455.413-2.011.278-.56.654-.987 1.129-1.283A3.007 3.007 0 0 1 20.377 21c.602 0 1.14.148 1.615.444.477.296.853.724 1.129 1.283.277.556.416 1.226.416 2.01Zm-1.253 0c0-.552-.081-1.017-.245-1.396-.161-.381-.385-.669-.672-.863a1.71 1.71 0 0 0-.99-.295 1.71 1.71 0 0 0-.991.295c-.287.194-.512.482-.675.863-.162.379-.242.844-.242 1.396 0 .552.08 1.019.242 1.4.163.379.388.666.675.863.286.194.617.291.99.291.374 0 .705-.097.991-.291.287-.197.51-.484.672-.863.164-.381.245-.848.245-1.4ZM24.724 28.375v-7.276h1.247v6.171H29v1.105h-4.276Z"/>
</svg>
